X:12411
T:On the Road To Kingston Reel
C:Bruce Osborne  --  June 12 1998
R:reel
L:1/16
M:2/4
K:A
ED|CA,CE Acec|dAFA d2cd|efec aecA|BcBA B2ED|
CA,CE Acec|dAFA d2cd|efec aecA|BAGB A2:|
|:ED|CEA,C EA,CE|DFAF E2AB|ceAc fedc|BcBA B2ED|
CEA,C EA,CE|DFAF E2AB|ceAc fecA|BAGB A2:|
